X: 6773
T: Chapel Bell, The
R: jig
M: 6/8
K: Ddorian
D3|:DED DEG|ADd c2e|dcA AGE|ccA GEC|
DED DEG|ADd c2e|dcA AGE|GED DEG:|
Add dcA|cde eed|cAA AGE|ccd cAG|
Add dcA|cde eed|cAA AGE GED DEG:|

